X:17782
T:Trip to Nenagh
R:Reel
S:
H:
N:
D:
Z:Adrian Scahill
M:4/4
L:1/8
K:D
d2AG FADF|A,DFA d=cAG|Add2 a=fed|=c2Gc EcGc|\
dBAG FDD2|A,DFA d=cAG|Add2 AdFA|GFEG FDD2:|\
d2fd adfa|gfed caec|d2AG FADF|(3EFG AB =c2Bc|\
Add2 adfd|edcd efge|a2ea caec|dBAG FDD2:||
